packages/crs-framework/resources/svg/chevron-down.svg

<svg width="24" height="24" viewBox="0 0 24 24" fill="none" xmlns="http://www.w3.org/2000/svg">
<path d="M7.14541 8.35535L12.0063 13.0691L16.8671 8.35535C17.3557 7.88155 18.145 7.88155 18.6336 8.35535C19.1221 8.82916 19.1221 9.59453 18.6336 10.0683L12.8832 15.6446C12.3946 16.1185 11.6054 16.1185 11.1168 15.6446L5.36644 10.0683C4.87785 9.59453 4.87785 8.82916 5.36644 8.35535C5.85503 7.8937 6.65682 7.88155 7.14541 8.35535Z" fill="#272C37"/>
</svg>

<svg width="24" height="24" xmlns="http://www.w3.org/2000/svg"><path d="m7.145 8.355 4.861 4.714 4.861-4.714a1.275 1.275 0 0 1 1.767 0c.488.474.488 1.24 0 1.713l-5.75 5.577a1.275 1.275 0 0 1-1.767 0l-5.75-5.577a1.184 1.184 0 0 1 0-1.713c.488-.461 1.29-.473 1.778 0Z"/></svg>
